X:1
T:Fear Thou Not
T:Fear Thou Not
T:James McGranahan, 1884
T:H. A. C. Malan, tr. Jane E. Arnold
T:Public Domain Courtesy of the Cyber Hymnal™
T:Public Domain Courtesy of the Cyber Hymnal™
C:James McGranahan, 1884
Z:Public Domain
Z:Courtesy of the Cyber Hymnal™
%%score ( 1 2 ) ( 3 4 )
L:1/8
Q:1/4=102
M:6/8
K:D
V:1 treble 
V:2 treble 
V:3 bass 
V:4 bass 
V:1
 [FA] | [FA]2 [FA] [FA]2 [FA] | [GB]2 [FA] [DF]2 [FA] | [FA]2 [EG] (GF)[CE] | ([DF]3 [FA]2) [FA] | %5
w: 1.~O|Christ- ian trav- ’ler,|fear no more The|storms which round * thee|spread; * Nor|
w: 2.~Thy|Sav- ior, who up-|on the cross Thy|full re- demp- * tion|paid, * Will|
w: 3.~A|safe re- treat and|hid- ing place Thy|Sav- ior will * pro-|vide; * And|
w: 4.~No,|in thy dark- est|days on earth, When|ev- ery joy * seems|flown, * Be-|
 [FA]2 [FA] [FA]2 [FA] | [GB]2 [FA] [DF]2 [FA] | [FA]2 [EG] (GF)[CE] | D3- D2 z || %9
w: yet the noon- tide’s|sul- try beams On|thy de- fense- * less|head. *|
w: not from thee, His|ran- somed one, With-|hold His prom- * ised|aid. *|
w: sor- row can- not|fill thy heart, While|shel- tered at * His|side. *|
w: liev- er, thou shalt|ne- ver tread The|toil- some way * a-|lone. *|
"^Refrain" [Fd]4 ([Ec][DB]) | [Ec]3 [EF]3 | [DB]4 ([Ec][EB]) | [DA]3 [DF]3 | [Fd]3 (dc)[=GB] | %14
w: |||||
w: |||||
w: “Fear thou *|not, for|I am *|with thee:|Be not * dis-|
w: |||||
 [Ae]3- [Ae]2 [Ac] | A2 A [^GB]3 | [=Gc]6 | [Fd]4 ([Ac][GB]) | [FA]3 [DF]3 | [DB]3- B (AG) | %20
w: ||||||
w: ||||||
w: mayed, * for|I am thy|God;|Fear thou *|not, for|I * am *|
w: ||||||
 [DF]3 D3 | D3 [CG]2 [CG] | [DF]3- [DF]2 [DB] | [DA]2 [FA] [Gc]3 | [Fd]3- [Fd]2 |] %25
w: |||||
w: |||||
w: with thee:|Be not dis-|mayed, * for|I am thy|God.” *|
w: |||||
V:2
 x | x6 | x6 | x3 D2 x | x6 | x6 | x6 | x3 D2 x | D3- D2 x || x6 | x6 | x6 | x6 | x3 ^G2 x | x6 | %15
 A2 A x3 | x6 | x6 | x6 | x3 D3 | x3 D3 | D3 x3 | x6 | x6 | x5 |] %25
V:3
 [D,D] | [D,D]2 [D,D] [D,D]2 [D,D] | [D,D]2 [D,D] [D,A,]2 [D,D] | [A,,D]2 [A,,C] (B,A,)[A,,A,] | %4
 ([D,-A,]3 [D,D]2) [D,D] | [D,D]2 [D,D] [D,D]2 [D,D] | [D,D]2 [D,D] [D,A,]2 [D,D] | %7
 [A,,D]2 [A,,C] (B,A,)[A,,A,] | [D,F,]3- [D,F,]2 z || [B,,B,]3 [B,,B,]3 | [F,^A,]3 [F,A,]3 | %11
 (B, G,2) (G,2 G,) | [D,F,]3 [D,A,]3 | [B,,B,]3 (B,C)[E,D] | [A,,C]3 [A,,C]2 [C,E] | %15
 [E,C]2 [E,C] [E,D]3 | (E3 A,3) | [D,A,]3 [D,A,]3 | [D,D]3 [D,D]3 | [G,D]3- D (CB,) | %20
 [D,A,]3 [D,F,]3 | [D,F,]3 [A,,E,]2 [A,,E,] | [B,,D,]3- [B,,D,]2 [G,,G,] | %23
 [A,,F,]2 [A,,A,] (E,2 A,) | [D,A,]3- [D,A,]2 |] %25
V:4
 x | x6 | x6 | x3 A,,2 x | x6 | x6 | x6 | x3 A,,2 x | x6 || x6 | x6 | G,3 A,,3 | x6 | x3 E,2 x | %14
 x6 | x6 | A,,6 | x6 | x6 | x3 G,3 | x6 | x6 | x6 | x3 A,,3 | x5 |] %25

